React/src/assets/images/frontend/javascript.svg

<svg width="130" height="130" viewBox="0 0 130 130" fill="none" xmlns="http://www.w3.org/2000/svg">
<path d="M16.25 16.25H113.75V113.75H16.25V16.25ZM41.8708 97.7167C44.0375 102.321 48.3167 106.112 55.6292 106.112C63.7542 106.112 69.3333 101.779 69.3333 92.3V60.9917H60.125V92.0833C60.125 96.7417 58.2292 97.9333 55.25 97.9333C52.1083 97.9333 50.8083 95.7667 49.3458 93.2208L41.8708 97.7167V97.7167ZM74.2625 96.7417C76.9708 102.05 82.4417 106.112 91 106.112C99.6667 106.112 106.167 101.617 106.167 93.3292C106.167 85.6917 101.779 82.2792 93.9792 78.9208L91.7042 77.9458C87.75 76.2667 86.0708 75.1292 86.0708 72.4208C86.0708 70.2 87.75 68.4667 90.4583 68.4667C93.0583 68.4667 94.7917 69.6042 96.3625 72.4208L103.458 67.7083C100.479 62.5083 96.2542 60.5042 90.4583 60.5042C82.2792 60.5042 77.025 65.7042 77.025 72.5833C77.025 80.0583 81.4125 83.5792 88.0208 86.3958L90.2958 87.3708C94.5208 89.2125 97.0125 90.35 97.0125 93.4917C97.0125 96.0917 94.575 97.9875 90.7833 97.9875C86.2875 97.9875 83.6875 95.6583 81.7375 92.4083L74.2625 96.7417Z" fill="#FFCA28"/>
</svg>

<svg width="130" height="130" fill="none" xmlns="http://www.w3.org/2000/svg"><path d="M16.25 16.25h97.5v97.5h-97.5v-97.5zm25.62 81.467c2.168 4.604 6.447 8.395 13.76 8.395 8.124 0 13.703-4.333 13.703-13.812V60.992h-9.208v31.091c0 4.659-1.896 5.85-4.875 5.85-3.142 0-4.442-2.166-5.904-4.712l-7.475 4.496zm32.393-.975c2.708 5.308 8.179 9.37 16.737 9.37 8.667 0 15.167-4.495 15.167-12.783 0-7.637-4.388-11.05-12.188-14.408l-2.275-.975c-3.954-1.68-5.633-2.817-5.633-5.525 0-2.221 1.679-3.954 4.387-3.954 2.6 0 4.334 1.137 5.904 3.954l7.096-4.713c-2.979-5.2-7.204-7.204-13-7.204-8.179 0-13.433 5.2-13.433 12.08 0 7.474 4.387 10.995 10.996 13.812l2.275.975c4.225 1.842 6.716 2.979 6.716 6.12 0 2.6-2.437 4.496-6.229 4.496-4.496 0-7.096-2.329-9.046-5.579l-7.474 4.334z" fill="#FFCA28"/></svg>
